X: 32706
T: Polka Da Robaleira
R: polka
M: 2/4
K: Gmajor
DG GG|AG EG|DG GG|AG AB|DG GG|AG AB|de dB|AG EG|
DG GG|AG EG|DG GG|AG AB|DG GG|AG AB|de dB|A2 B2|
GG BG|AG EG|DG BG|AB cd|GG BG|AG EG|DE GA|BG AF|
GG BG|AG EG|DG BG|AB cd|gf ed|eB AG|AB cB|AG EG|
DG GG|AG EG|DG GG|AG AB|DG GG|AG AB|de dB|AG EG|
DG GG|AG EG|DG GG|AG AB|DG GG|AG AB|de dB|A2 B2|
GG BG|AG EG|DG BG|AB cd|GG BG|AG EG|DE GA|BG AF|
GG BG|AG EG|DG BG|AB cd|gf ed|eB AG|AB cB|AG EG|

